common/svg/question-mark-icon.svg

<svg fill="none" height="20" viewBox="0 0 20 20" width="20" xmlns="http://www.w3.org/2000/svg" xmlns:xlink="http://www.w3.org/1999/xlink"><clipPath id="a"><path d="m0 0h20v20h-20z"/></clipPath><g clip-path="url(#a)"><path d="m7.88843 14.0515h3.17447v-.2479c.019-2.021.6768-2.9456 2.2307-3.89893 1.754-1.04862 2.8503-2.47855 2.8503-4.66158 0-3.22212-2.5071-5.24309-6.1487-5.24309-3.33651 0-6.04385 1.84938-6.13918 5.47188h3.39371c.08579-1.79219 1.38227-2.65015 2.7264-2.65015 1.45857 0 2.63107.97236 2.63107 2.46902 0 1.33461-.8865 2.24976-2.04 2.97426-1.68735 1.04862-2.6597 2.10679-2.67877 5.53859zm1.66826 5.9485c1.12491 0 2.08771-.9342 2.09721-2.0972-.0095-1.144-.9723-2.0782-2.09721-2.0782-1.16302 0-2.10677.9342-2.09724 2.0782-.00953 1.163.93422 2.0972 2.09724 2.0972z" fill="#000"/></g></svg>

<svg width="20" height="20" viewBox="0 0 20 20" fill="none" xmlns="http://www.w3.org/2000/svg">
<g clip-path="url(#clip0)">
<path d="M7.88843 14.0515H11.0629V13.8036C11.0819 11.7826 11.7397 10.858 13.2936 9.90467C15.0476 8.85605 16.1439 7.42612 16.1439 5.24309C16.1439 2.02097 13.6368 0 9.9952 0C6.65869 0 3.95135 1.84938 3.85602 5.47188H7.24973C7.33552 3.67969 8.632 2.82173 9.97613 2.82173C11.4347 2.82173 12.6072 3.79409 12.6072 5.29075C12.6072 6.62536 11.7207 7.54051 10.5672 8.26501C8.87985 9.31363 7.9075 10.3718 7.88843 13.8036V14.0515ZM9.55669 20C10.6816 20 11.6444 19.0658 11.6539 17.9028C11.6444 16.7588 10.6816 15.8246 9.55669 15.8246C8.39367 15.8246 7.44992 16.7588 7.45945 17.9028C7.44992 19.0658 8.39367 20 9.55669 20Z" fill="black"/>
</g>
<defs>
<clipPath id="clip0">
<rect width="20" height="20" fill="white"/>
</clipPath>
</defs>
</svg>
